X:83
T:Lone Bush, The
R:hornpipe
C:Ed Reavy
D:The Music of Ed Reavy
Z:id:hn-hornpipe-83
M:C|
K:G
(3DEF|GABd c2dB|GABd c2Bc|dg (3fga gfdc|BGDE =FDCD|
GABd c2dB|GA (3Bcd c2Bc|dg (3fed cADF|AGGF G2:|
|:(3Bcd|gd (3Bcd =fcAc|gdBd =f2 (3de^f|gb (3fga gfdf|gfga fdcA|
GABd c2dB|GABd c2Bc|dgfd cADF|(3ABA GF G2:|
<end>
<start>
